img/experience/DLF.svg

<svg height="287pt" viewBox="0 0 805 287" width="805pt" xmlns="http://www.w3.org/2000/svg"><g fill="#1b1b1b"><path d="m643.41.74c5.91 9.21 10.87 19.01 16.42 28.44 11.5 20.33 23.04 40.62 34.53 60.96-33.86.05-67.72.02-101.57.01 16.81-29.84 33.78-59.58 50.62-89.41z"/><path d="m6.43 279.26c10.79-64.47 21.36-128.97 32.3-193.41 20.76.11 41.53.01 62.3.04 17.54.09 35.39-.8 52.54 3.66 14.04 3.43 27.67 10.71 36.33 22.57 9.7 13.07 12.63 29.86 12.39 45.81-.29 21.85-6.03 43.42-15.12 63.21-6.83 14.22-16.4 27.33-28.92 37.07-14.66 11.53-32.87 17.93-51.3 20-10.92 1.36-21.95 1.01-32.94 1.05-22.53 0-45.05 0-67.58 0m83.91-148.22c-5.74 34.36-11.45 68.72-17.18 103.08 10.76-.19 21.84.92 32.24-2.51 11.54-3.39 21.04-11.99 26.6-22.53 7.59-14.4 10.24-30.92 10.52-47.04-.18-8.89-1.67-19.63-10.04-24.65-12.57-7.8-28.02-6.11-42.14-6.35z"/><path d="m231.14 85.9c19.73-.01 39.47-.01 59.21 0-8.24 49.41-16.47 98.82-24.69 148.23 27.11-.03 54.22.01 81.33-.02-2.52 15.05-4.97 30.12-7.56 45.17-46.83-.05-93.66-.01-140.49-.02 10.7-64.46 21.45-128.91 32.2-193.36z"/><path d="m387.96 85.9c46.86-.01 93.71-.01 140.57 0-2.47 15.03-5.03 30.04-7.49 45.07-27.12.17-54.24.01-81.37.09-1.93 11.71-3.9 23.42-5.85 35.13 21.58-.01 43.16.09 64.74-.05-2.34 15.07-5.02 30.09-7.44 45.16-21.6.05-43.21-.01-64.81.03-3.76 22.64-7.57 45.28-11.3 67.93-19.75-.01-39.49.01-59.24-.01 10.73-64.45 21.51-128.89 32.19-193.35z"/><path d="m596.75 96.95c31.22-.02 62.44.01 93.66-.01-15.58 27.56-31.24 55.07-46.81 82.63-15.68-27.5-31.27-55.06-46.85-82.62z"/><path d="m540.24 182.86c16.3-28.62 32.49-57.31 48.78-85.94 16.29 28.65 32.51 57.35 48.81 86-32.53-.03-65.06.08-97.59-.06z"/><path d="m649.18 182.89c16.29-28.63 32.48-57.33 48.78-85.97 16.28 28.66 32.54 57.33 48.79 86.01-32.53-.04-65.05.05-97.57-.04z"/><path d="m536.42 189.65c17.06 29.79 33.92 59.71 50.84 89.58-33.87.02-67.73.02-101.59 0 16.89-29.88 33.86-59.7 50.75-89.58z"/><path d="m544.22 189.7c31.23.05 62.46 0 93.69.02-15.32 27.12-30.77 54.17-46.05 81.31-.47 1.79-1.73.1-1.98-.7-15.15-26.92-30.47-53.74-45.66-80.63z"/><path d="m649.26 189.73c31.22-.02 62.45-.01 93.68-.01-15.61 27.55-31.23 55.09-46.85 82.64-15.6-27.55-31.24-55.08-46.83-82.63z"/><path d="m750.51 189.78c8.38 13.7 15.9 27.93 23.97 41.82 8.99 15.89 18 31.76 27.01 47.63-33.88.01-67.76.04-101.63-.01 16.86-29.83 33.83-59.59 50.65-89.44z"/><path d="m643.6 193.18c16.51 28.53 32.51 57.37 48.75 86.06-32.47.01-64.94 0-97.4 0 16.17-28.71 32.56-57.3 48.65-86.06z"/></g></svg>

<?xml version="1.0" encoding="UTF-8" ?>
<!DOCTYPE svg PUBLIC "-//W3C//DTD SVG 1.1//EN" "http://www.w3.org/Graphics/SVG/1.1/DTD/svg11.dtd">
<svg width="805pt" height="287pt" viewBox="0 0 805 287" version="1.1" xmlns="http://www.w3.org/2000/svg">
<g id="#ffffffff">
</g>
<g id="#1b1b1bff">
<path fill="#1b1b1b" opacity="1.00" d=" M 643.41 0.74 C 649.32 9.95 654.28 19.75 659.83 29.18 C 671.33 49.51 682.87 69.80 694.36 90.14 C 660.50 90.19 626.64 90.16 592.79 90.15 C 609.60 60.31 626.57 30.57 643.41 0.74 Z" />
<path fill="#1b1b1b" opacity="1.00" d=" M 6.43 279.26 C 17.22 214.79 27.79 150.29 38.73 85.85 C 59.49 85.96 80.26 85.86 101.03 85.89 C 118.57 85.98 136.42 85.09 153.57 89.55 C 167.61 92.98 181.24 100.26 189.90 112.12 C 199.60 125.19 202.53 141.98 202.29 157.93 C 202.00 179.78 196.26 201.35 187.17 221.14 C 180.34 235.36 170.77 248.47 158.25 258.21 C 143.59 269.74 125.38 276.14 106.95 278.21 C 96.03 279.57 85.00 279.22 74.01 279.26 C 51.48 279.26 28.96 279.26 6.43 279.26 M 90.34 131.04 C 84.60 165.40 78.89 199.76 73.16 234.12 C 83.92 233.93 95.00 235.04 105.40 231.61 C 116.94 228.22 126.44 219.62 132.00 209.08 C 139.59 194.68 142.24 178.16 142.52 162.04 C 142.34 153.15 140.85 142.41 132.48 137.39 C 119.91 129.59 104.46 131.28 90.34 131.04 Z" />
<path fill="#1b1b1b" opacity="1.00" d=" M 231.14 85.90 C 250.87 85.89 270.61 85.89 290.35 85.90 C 282.11 135.31 273.88 184.72 265.66 234.13 C 292.77 234.10 319.88 234.14 346.99 234.11 C 344.47 249.16 342.02 264.23 339.43 279.28 C 292.60 279.23 245.77 279.27 198.94 279.26 C 209.64 214.80 220.39 150.35 231.14 85.90 Z" />
<path fill="#1b1b1b" opacity="1.00" d=" M 387.96 85.90 C 434.82 85.89 481.67 85.89 528.53 85.90 C 526.06 100.93 523.50 115.94 521.04 130.97 C 493.92 131.14 466.80 130.98 439.67 131.06 C 437.74 142.77 435.77 154.48 433.82 166.19 C 455.40 166.18 476.98 166.28 498.56 166.14 C 496.22 181.21 493.54 196.23 491.12 211.30 C 469.52 211.35 447.91 211.29 426.31 211.33 C 422.55 233.97 418.74 256.61 415.01 279.26 C 395.26 279.25 375.52 279.27 355.77 279.25 C 366.50 214.80 377.28 150.36 387.96 85.90 Z" />
<path fill="#1b1b1b" opacity="1.00" d=" M 596.75 96.95 C 627.97 96.93 659.19 96.96 690.41 96.94 C 674.83 124.50 659.17 152.01 643.60 179.57 C 627.92 152.07 612.33 124.51 596.75 96.95 Z" />
<path fill="#1b1b1b" opacity="1.00" d=" M 540.24 182.86 C 556.54 154.24 572.73 125.55 589.02 96.92 C 605.31 125.57 621.53 154.27 637.83 182.92 C 605.30 182.89 572.77 183.00 540.24 182.86 Z" />
<path fill="#1b1b1b" opacity="1.00" d=" M 649.18 182.89 C 665.47 154.26 681.66 125.56 697.96 96.92 C 714.24 125.58 730.50 154.25 746.75 182.93 C 714.22 182.89 681.70 182.98 649.18 182.89 Z" />
<path fill="#1b1b1b" opacity="1.00" d=" M 536.42 189.65 C 553.48 219.44 570.34 249.36 587.26 279.23 C 553.39 279.25 519.53 279.25 485.67 279.23 C 502.56 249.35 519.53 219.53 536.42 189.65 Z" />
<path fill="#1b1b1b" opacity="1.00" d=" M 544.22 189.70 C 575.45 189.75 606.68 189.70 637.91 189.72 C 622.59 216.84 607.14 243.89 591.86 271.03 C 591.39 272.82 590.13 271.13 589.88 270.33 C 574.73 243.41 559.41 216.59 544.22 189.70 Z" />
<path fill="#1b1b1b" opacity="1.00" d=" M 649.26 189.73 C 680.48 189.71 711.71 189.72 742.94 189.72 C 727.33 217.27 711.71 244.81 696.09 272.36 C 680.49 244.81 664.85 217.28 649.26 189.73 Z" />
<path fill="#1b1b1b" opacity="1.00" d=" M 750.51 189.78 C 758.89 203.48 766.41 217.71 774.48 231.60 C 783.47 247.49 792.48 263.36 801.49 279.23 C 767.61 279.24 733.73 279.27 699.86 279.22 C 716.72 249.39 733.69 219.63 750.51 189.78 Z" />
<path fill="#1b1b1b" opacity="1.00" d=" M 643.60 193.18 C 660.11 221.71 676.11 250.55 692.35 279.24 C 659.88 279.25 627.41 279.24 594.95 279.24 C 611.12 250.53 627.51 221.94 643.60 193.18 Z" />
</g>
</svg>
